groups/nitrogen/carbamate.svg

<?xml version='1.0' encoding='iso-8859-1'?>
<svg version='1.1' baseProfile='full'
              xmlns='http://www.w3.org/2000/svg'
                      xmlns:rdkit='http://www.rdkit.org/xml'
                      xmlns:xlink='http://www.w3.org/1999/xlink'
                  xml:space='preserve'
width='256px' height='256px' viewBox='0 0 256 256'>
<!-- END OF HEADER -->
<rect style='opacity:1.0;fill:#FFFFFF;stroke:none' width='256.0' height='256.0' x='0.0' y='0.0'> </rect>
<path class='bond-0 atom-0 atom-1' d='M 25.5,106.0 L 58.5,125.1' style='fill:none;fill-rule:evenodd;stroke:#000000;stroke-width:2.0px;stroke-linecap:butt;stroke-linejoin:miter;stroke-opacity:1' />
<path class='bond-1 atom-1 atom-2' d='M 80.0,125.1 L 113.1,106.0' style='fill:none;fill-rule:evenodd;stroke:#000000;stroke-width:2.0px;stroke-linecap:butt;stroke-linejoin:miter;stroke-opacity:1' />
<path class='bond-2 atom-2 atom-3' d='M 116.9,108.2 L 116.9,72.3' style='fill:none;fill-rule:evenodd;stroke:#000000;stroke-width:2.0px;stroke-linecap:butt;stroke-linejoin:miter;stroke-opacity:1' />
<path class='bond-2 atom-2 atom-3' d='M 109.3,108.2 L 109.3,72.3' style='fill:none;fill-rule:evenodd;stroke:#000000;stroke-width:2.0px;stroke-linecap:butt;stroke-linejoin:miter;stroke-opacity:1' />
<path class='bond-3 atom-2 atom-4' d='M 113.1,106.0 L 146.1,125.1' style='fill:none;fill-rule:evenodd;stroke:#000000;stroke-width:2.0px;stroke-linecap:butt;stroke-linejoin:miter;stroke-opacity:1' />
<path class='bond-4 atom-4 atom-5' d='M 167.7,125.1 L 190.0,112.3' style='fill:none;fill-rule:evenodd;stroke:#000000;stroke-width:2.0px;stroke-linecap:butt;stroke-linejoin:miter;stroke-opacity:1' />
<path class='bond-5 atom-4 atom-6' d='M 156.9,148.2 L 156.9,171.2' style='fill:none;fill-rule:evenodd;stroke:#000000;stroke-width:2.0px;stroke-linecap:butt;stroke-linejoin:miter;stroke-opacity:1' />
<path d='M 111.5,107.0 L 113.1,106.0 L 114.8,107.0' style='fill:none;stroke:#000000;stroke-width:2.0px;stroke-linecap:butt;stroke-linejoin:miter;stroke-miterlimit:10;stroke-opacity:1;' />
<path class='atom-1' d='M12.8,127.857 C14.4426,128.807 15.7092,126.617 14.0667,125.667 C12.4241,124.717 13.6907,122.527 15.3333,123.477 C16.9759,124.427 18.2425,122.237 16.6,121.287 C14.9574,120.337 16.224,118.146 17.8666,119.096 C19.5092,120.046 20.7758,117.856 19.1333,116.906 C17.4907,115.956 18.7573,113.766 20.3999,114.716 C22.0425,115.666 23.3091,113.476 21.6666,112.526 C20.024,111.576 21.2906,109.386 22.9332,110.336 C24.5758,111.286 25.8424,109.095 24.1999,108.145 C22.5573,107.195 23.8239,105.005 25.4665,105.955 C27.1091,106.905 28.3757,104.715 26.7332,103.765 C25.0906,102.815 26.3572,100.625 27.9998,101.575 C29.6424,102.525 30.909,100.335 29.2665,99.3846 C27.6239,98.4346 28.8905,96.2445 30.5331,97.1944 C32.1757,98.1443 33.4423,95.9541 31.7998,95.0042 C30.1572,94.0543 31.4238,91.8641 33.0664,92.814 C34.709,93.7639 35.9756,91.5737 34.3331,90.6238 C32.6905,89.6739 33.9571,87.4837 35.5997,88.4336 C37.2423,89.3835 38.5089,87.1934 36.8664,86.2434 C35.2238,85.2935 36.4904,83.1033 38.133,84.0532' style='fill:none;stroke:#7F7F7F;stroke-width:2.0px;stroke-linecap:butt;stroke-linejoin:miter;stroke-opacity:1' />
<text x='60.2' y='146.5' class='atom-1' style='font-size:30px;font-style:normal;font-weight:normal;fill-opacity:1;stroke:none;font-family:sans-serif;text-anchor:start;fill:#000000' >O</text>
<text x='104.0' y='70.6' class='atom-3' style='font-size:30px;font-style:normal;font-weight:normal;fill-opacity:1;stroke:none;font-family:sans-serif;text-anchor:start;fill:#000000' >O</text>
<text x='147.8' y='146.5' class='atom-4' style='font-size:30px;font-style:normal;font-weight:normal;fill-opacity:1;stroke:none;font-family:sans-serif;text-anchor:start;fill:#000000' >N</text>
<text x='191.6' y='121.3' class='atom-5' style='font-size:30px;font-style:normal;font-weight:normal;fill-opacity:1;stroke:none;font-family:sans-serif;text-anchor:start;fill:#000000' >C</text>
<text x='212.6' y='121.3' class='atom-5' style='font-size:30px;font-style:normal;font-weight:normal;fill-opacity:1;stroke:none;font-family:sans-serif;text-anchor:start;fill:#000000' >H</text>
<text x='233.5' y='133.4' class='atom-5' style='font-size:20px;font-style:normal;font-weight:normal;fill-opacity:1;stroke:none;font-family:sans-serif;text-anchor:start;fill:#000000' >3</text>
<text x='147.8' y='197.1' class='atom-6' style='font-size:30px;font-style:normal;font-weight:normal;fill-opacity:1;stroke:none;font-family:sans-serif;text-anchor:start;fill:#000000' >C</text>
<text x='168.7' y='197.1' class='atom-6' style='font-size:30px;font-style:normal;font-weight:normal;fill-opacity:1;stroke:none;font-family:sans-serif;text-anchor:start;fill:#000000' >H</text>
<text x='189.7' y='209.3' class='atom-6' style='font-size:20px;font-style:normal;font-weight:normal;fill-opacity:1;stroke:none;font-family:sans-serif;text-anchor:start;fill:#000000' >3</text>
</svg>

<svg height="256" viewBox="0 0 256 256" width="256" xmlns="http://www.w3.org/2000/svg"><path d="m0 0h256v256h-256z" fill="#fff"/><g fill="none" stroke-width="2"><path d="m25.5 106 33 19.1" stroke="#000"/><path d="m80 125.1 33.1-19.1" stroke="#000"/><path d="m116.9 108.2v-35.9" stroke="#000"/><path d="m109.3 108.2v-35.9" stroke="#000"/><path d="m113.1 106 33 19.1" stroke="#000"/><path d="m167.7 125.1 22.3-12.8" stroke="#000"/><path d="m156.9 148.2v23" stroke="#000"/><path d="m111.5 107 1.6-1 1.7 1" stroke="#000" stroke-miterlimit="10"/><path d="m12.8 127.857c1.643.95 2.909-1.24 1.267-2.19-1.643-.95-.376-3.14 1.266-2.19 1.643.95 2.91-1.24 1.267-2.19s-.376-3.141 1.267-2.191c1.642.95 2.909-1.24 1.266-2.19-1.642-.95-.376-3.14 1.267-2.19s2.909-1.24 1.267-2.19c-1.643-.95-.376-3.14 1.266-2.19 1.643.95 2.909-1.241 1.267-2.191-1.643-.95-.376-3.14 1.267-2.19 1.642.95 2.909-1.24 1.266-2.19-1.642-.95-.376-3.14 1.267-2.19 1.642.95 2.909-1.24 1.267-2.19-1.643-.95-.376-3.14 1.266-2.191 1.643.95 2.909-1.24 1.267-2.19-1.643-.95-.376-3.14 1.266-2.19 1.643.95 2.91-1.24 1.267-2.19-1.642-.95-.376-3.14 1.267-2.19 1.642.95 2.909-1.241 1.266-2.191-1.642-.949-.376-3.14 1.267-2.19" stroke="#7f7f7f"/></g><text font-family="sans-serif" font-size="30" x="60.2" y="146.5">O</text><text font-family="sans-serif" font-size="30" x="104" y="70.6">O</text><text font-family="sans-serif" font-size="30" x="147.8" y="146.5">N</text><text font-family="sans-serif" font-size="30" x="191.6" y="121.3">C</text><text font-family="sans-serif" font-size="30" x="212.6" y="121.3">H</text><text font-family="sans-serif" font-size="20" x="233.5" y="133.4">3</text><text font-family="sans-serif" font-size="30" x="147.8" y="197.1">C</text><text font-family="sans-serif" font-size="30" x="168.7" y="197.1">H</text><text font-family="sans-serif" font-size="20" x="189.7" y="209.3">3</text></svg>
